dist/svg/basket-duo-tone.svg

<svg xmlns="http://www.w3.org/2000/svg" viewBox="0 0 24 24"><path d="M9.27 4.296a.74.74 0 0 0-.341.224c-.028.033-.69 1.333-1.47 2.89L6.04 10.24l-1.53.001c-.842 0-1.601.017-1.687.037a.739.739 0 0 0-.348 1.246c.191.192.365.236.932.236h.467l.042.21c.024.115.268 1.416.543 2.89.276 1.474.539 2.806.585 2.96.132.442.306.73.656 1.084.473.479.934.719 1.566.816.185.029 1.785.038 4.914.03 5.214-.014 4.795.01 5.44-.322.239-.123.406-.252.661-.507.371-.372.539-.646.675-1.101.046-.154.309-1.486.585-2.96s.519-2.775.543-2.89l.042-.21h.467c.567 0 .741-.044.932-.236a.739.739 0 0 0-.348-1.246c-.086-.02-.845-.037-1.687-.037l-1.53-.001-1.416-2.833c-1.138-2.275-1.445-2.857-1.56-2.958a.735.735 0 0 0-1.224.563c0 .164.148.482 1.26 2.707l1.26 2.521H7.72l1.26-2.521c1.357-2.715 1.344-2.682 1.204-3.015-.141-.338-.574-.531-.914-.408m9.311 7.514a317 317 0 0 0-.523 2.77c-.343 1.845-.535 2.785-.596 2.922-.121.27-.292.458-.549.6l-.213.118H7.3l-.213-.118a1.2 1.2 0 0 1-.549-.6c-.061-.137-.253-1.077-.596-2.922a317 317 0 0 0-.523-2.77c-.013-.04 1.321-.05 6.581-.05s6.594.01 6.581.05m-9.934 1.036a.8.8 0 0 0-.28.247l-.107.161v3.493l.111.159A.74.74 0 0 0 9 17.24a.74.74 0 0 0 .629-.334l.111-.159v-3.494l-.114-.165a.77.77 0 0 0-.979-.242m3 0a.8.8 0 0 0-.28.247l-.107.161v3.493l.111.159a.74.74 0 0 0 .629.334.74.74 0 0 0 .629-.334l.111-.159v-3.494l-.114-.165a.77.77 0 0 0-.979-.242m3 0a.8.8 0 0 0-.28.247l-.107.161v3.493l.111.159a.74.74 0 0 0 .629.334.74.74 0 0 0 .629-.334l.111-.159v-3.494l-.114-.165a.77.77 0 0 0-.979-.242"/></svg>

<svg fill="none" xmlns="http://www.w3.org/2000/svg" viewBox="0 0 24 24"><path d="M9.270 4.296 C 9.114 4.353,9.017 4.416,8.929 4.520 C 8.901 4.553,8.239 5.853,7.459 7.410 L 6.040 10.240 4.510 10.241 C 3.668 10.241,2.909 10.258,2.823 10.278 C 2.258 10.409,2.062 11.111,2.475 11.524 C 2.666 11.716,2.840 11.760,3.407 11.760 L 3.874 11.760 3.916 11.970 C 3.940 12.085,4.184 13.386,4.459 14.860 C 4.735 16.334,4.998 17.666,5.044 17.820 C 5.176 18.262,5.350 18.550,5.700 18.904 C 6.173 19.383,6.634 19.623,7.266 19.720 C 7.451 19.749,9.051 19.758,12.180 19.750 C 17.394 19.736,16.975 19.760,17.620 19.428 C 17.859 19.305,18.026 19.176,18.281 18.921 C 18.652 18.549,18.820 18.275,18.956 17.820 C 19.002 17.666,19.265 16.334,19.541 14.860 C 19.816 13.386,20.060 12.085,20.084 11.970 L 20.126 11.760 20.593 11.760 C 21.160 11.760,21.334 11.716,21.525 11.524 C 21.938 11.111,21.742 10.409,21.177 10.278 C 21.091 10.258,20.332 10.241,19.490 10.241 L 17.960 10.240 16.544 7.407 C 15.406 5.132,15.099 4.550,14.984 4.449 C 14.501 4.025,13.760 4.365,13.760 5.012 C 13.760 5.176,13.908 5.494,15.020 7.719 L 16.280 10.240 12.000 10.240 L 7.720 10.240 8.980 7.719 C 10.337 5.004,10.324 5.037,10.184 4.704 C 10.043 4.366,9.610 4.173,9.270 4.296 M18.581 11.810 C 18.572 11.838,18.337 13.084,18.058 14.580 C 17.715 16.425,17.523 17.365,17.462 17.502 C 17.341 17.772,17.170 17.960,16.913 18.102 L 16.700 18.220 12.000 18.220 L 7.300 18.220 7.087 18.102 C 6.830 17.960,6.659 17.772,6.538 17.502 C 6.477 17.365,6.285 16.425,5.942 14.580 C 5.663 13.084,5.428 11.838,5.419 11.810 C 5.406 11.770,6.740 11.760,12.000 11.760 C 17.260 11.760,18.594 11.770,18.581 11.810 M8.647 12.846 C 8.545 12.896,8.429 12.998,8.367 13.093 L 8.260 13.254 8.260 15.000 L 8.260 16.747 8.371 16.906 C 8.522 17.125,8.739 17.240,9.000 17.240 C 9.261 17.240,9.478 17.125,9.629 16.906 L 9.740 16.747 9.740 15.000 L 9.740 13.253 9.626 13.088 C 9.410 12.777,8.994 12.674,8.647 12.846 M11.647 12.846 C 11.545 12.896,11.429 12.998,11.367 13.093 L 11.260 13.254 11.260 15.000 L 11.260 16.747 11.371 16.906 C 11.522 17.125,11.739 17.240,12.000 17.240 C 12.261 17.240,12.478 17.125,12.629 16.906 L 12.740 16.747 12.740 15.000 L 12.740 13.253 12.626 13.088 C 12.410 12.777,11.994 12.674,11.647 12.846 M14.647 12.846 C 14.545 12.896,14.429 12.998,14.367 13.093 L 14.260 13.254 14.260 15.000 L 14.260 16.747 14.371 16.906 C 14.522 17.125,14.739 17.240,15.000 17.240 C 15.261 17.240,15.478 17.125,15.629 16.906 L 15.740 16.747 15.740 15.000 L 15.740 13.253 15.626 13.088 C 15.410 12.777,14.994 12.674,14.647 12.846 " stroke="none" fill-rule="evenodd"/></svg>
